X: 372
T: A Stor Mo Chroi
R: waltz
M: 3/4
K: Bminor
(d3/2e/)|f3/2f/ f2e<f|(e>d) BA/F/ A2-|
A4B3/2d/|e3/2f/ (e>d B>A)|(F3/2E/) (F<A) B2|
[1B4:|2 B4-B B]|BA/B/ de/f/ a3/2b/|
B3B BA/B/|de/f/ (b4|b)a/f/ (a3 ^a)|
b2^g3a|b=ff3 e/f/|e>d BA/F/ A2-|
A2fe dB/A/|F3E FA|(B2B4)||

